X: 4
T: The Swallow's Tail
R: reel
M: 4/4
L: 1/8
K: Edor
BEFE BEFE|FABc dedB|A2 (3FED ADFD|FABc dfed|BEFE BEFE|FABc d2Bd|eBdB AFDE|(3FED (3AFD E2FA:||Beef edBA|FABc dedB|A2 (3FED ADFD|FABc dfed|Beef edBA|FAfA d2Bd|eBdB AFDE|(3FED (3AFD E2FA:||


Tune 105	Setting 29551

